X:81
T:Polska ur Carl Johan Johanssons notbok
T:(SmM I:81)
R:Polska
S:Carl Johan Johansson
O:Södra Flaka, Djursdala, Småland
B:Småländsk Musiktradition
N:Finns i Smus M42.
M:3/4
L:1/16
K:Gm
g4 d4 b4|a2ag fgaf d4|BFBd BFBd edcB|AFAc AFAc dcBA|
BFBd BFBd edcB|AFAc AFAc dcBA|BAG^F GFGB d2B2|A^FDF F4 G4:|
|:d^cd^f a2af d2f2|a2a2 c'bab a2^f2|d2d'2 d'2d'2 c'bab|^f2g2 a2f2 dcBA|
Bdfd Bdfd edcB|Acec Acec dcBA|Bdfd Bdfd edcB|Acec Acec dcBA|
BAG^F GFGB d2B2|A^FDF F4 G4:|

